assets/img/Nav-Logo-2.svg

<svg width="95" height="26" viewBox="0 0 95 26" fill="none" xmlns="http://www.w3.org/2000/svg">
<path d="M5.58519 19.7607H8.67961C12.3458 19.7607 15.3393 17.6417 15.3393 12.8656C15.3393 8.08941 12.3458 5.93678 8.67961 5.93678H5.58519V19.7607ZM8.88142 24.7723H0.270874V0.925171H8.91505C16.0793 0.925171 20.8891 5.49952 20.8891 12.8656C20.8891 20.2316 16.0793 24.7723 8.88142 24.7723Z" fill="black"/>
<path d="M39.8116 24.7723H24.6759V0.925171H39.778V5.93678H29.9902V10.4775H38.8699V15.1528H29.9902V19.7271H39.8116V24.7723Z" fill="black"/>
<path d="M53.8001 17.709L59.4844 0.925171H65.1351L56.4236 24.7723H50.9411L42.196 0.925171H48.0485L53.8001 17.709Z" fill="black"/>
<path d="M63.2581 21.6107C63.2581 19.7271 64.8053 18.1799 66.6888 18.1799C68.5724 18.1799 70.1532 19.7271 70.1532 21.6107C70.1532 23.4606 68.5724 25.0751 66.6888 25.0751C64.8053 25.0751 63.2581 23.4606 63.2581 21.6107Z" fill="black"/>
<path d="M94.9327 0.925171L87.264 12.8992L95 24.7723H88.5421L83.8332 17.0363L79.158 24.7723H72.9019L80.6043 12.8319L72.9019 0.925171H79.2925L84.0014 8.66121L88.7103 0.925171H94.9327Z" fill="#7000FF"/>
</svg>

<svg width="95" height="26" fill="none" xmlns="http://www.w3.org/2000/svg"><path d="M5.585 19.76H8.68c3.666 0 6.66-2.118 6.66-6.894 0-4.777-2.994-6.93-6.66-6.93H5.585v13.825Zm3.296 5.012H.271V.925h8.644C16.08.925 20.89 5.5 20.89 12.865c0 7.367-4.81 11.907-12.008 11.907ZM39.812 24.772H24.676V.925h15.102v5.012H29.99v4.54h8.88v4.676h-8.88v4.574h9.822v5.045ZM53.8 17.709 59.484.925h5.651l-8.711 23.847H50.94L42.196.925h5.852L53.8 17.71ZM63.258 21.61a3.445 3.445 0 0 1 3.43-3.43c1.884 0 3.465 1.547 3.465 3.43 0 1.85-1.58 3.465-3.464 3.465s-3.43-1.614-3.43-3.464Z" fill="#000"/><path d="M94.933.925 87.264 12.9 95 24.772h-6.458l-4.709-7.736-4.675 7.736h-6.256l7.702-11.94L72.902.925h6.39l4.71 7.736L88.71.925h6.223Z" fill="#7000FF"/></svg>
